build-source/logos/tntseriehd.default.svg

<svg xmlns="http://www.w3.org/2000/svg" viewBox="0 0 600 350.64" xmlns:xlink="http://www.w3.org/1999/xlink"><g transform="translate(-50-357.04)"><path d="m0 0v4.291h1.122l1.542-2.663-.041 2.663h1.033v-4.291h-1.115l-1.501 2.505-.014-2.505h-1.026" fill="#b6111c" transform="matrix(17.53566 0 0-17.53566 165.67 549.49)"/><path d="m0 0l.005 3.31h-1.265l-.006.981h3.662l.006-.981h-1.313l-.005-3.31h-1.084" fill="#b6111c" transform="matrix(17.53566 0 0-17.53566 261.18 549.49)" id="0"/><use transform="translate(-146.05)" xlink:href="#0"/><g fill="#b6111c"><path d="m0 0c0-1.984.802-3.773 2.102-5.074 1.3-1.3 3.09-2.101 5.074-2.102 1.983 0 3.773.802 5.074 2.102 1.299 1.301 2.101 3.09 2.102 5.074 0 1.984-.803 3.774-2.102 5.074-1.301 1.3-3.091 2.102-5.074 2.102-1.984 0-3.774-.802-5.074-2.102-1.3-1.3-2.102-3.09-2.102-5.074m-1.267 0c0 4.663 3.78 8.442 8.443 8.443 4.663 0 8.442-3.78 8.443-8.443 0-4.663-3.78-8.442-8.443-8.443-4.663 0-8.443 3.78-8.443 8.443" transform="matrix(17.53566 0 0-17.53566 72.22 505.09)"/><path d="m0 0c.027-.053.064-.096.109-.128.046-.033.099-.057.16-.073.061-.016.124-.024.19-.024.044 0 .091.004.142.011.051.008.098.022.142.043.045.021.082.05.111.087.03.037.044.084.044.141 0 .061-.019.111-.058.149-.039.038-.09.069-.153.095-.064.025-.135.047-.216.066-.08.019-.161.04-.243.063-.085.021-.167.047-.247.078-.08.03-.152.07-.215.118-.063.049-.115.11-.154.182-.039.073-.058.161-.058.265 0 .116.025.216.074.302.05.085.115.156.195.213.08.057.171.099.272.127.101.027.202.041.304.041.118 0 .231-.013.34-.04.108-.026.205-.069.289-.128.085-.059.151-.134.201-.226.05-.092.074-.203.074-.334h-.48c-.005.068-.019.124-.043.168-.024.044-.057.079-.097.104-.04.026-.086.043-.137.054-.052.011-.108.016-.17.016-.04 0-.08-.004-.12-.013-.04-.008-.076-.023-.109-.044-.033-.021-.059-.048-.081-.079-.021-.032-.031-.072-.031-.12 0-.045.008-.081.025-.108.017-.027.05-.053.1-.076.049-.023.118-.046.205-.07.088-.023.202-.052.344-.088.042-.009.1-.024.175-.046.075-.022.149-.057.223-.106.074-.048.138-.113.192-.194.053-.082.08-.186.08-.312 0-.103-.02-.199-.06-.288-.04-.089-.099-.165-.179-.229-.079-.065-.177-.115-.294-.151-.117-.036-.252-.053-.406-.053-.125 0-.245.015-.363.045-.116.031-.22.079-.309.144-.09.066-.161.149-.214.25-.053.102-.078.222-.076.361h.481c0-.076.014-.14.041-.193" transform="matrix(17.53566 0 0-17.53566 126.37 697.04)"/></g><path d="m0 0v-.418h-1.193v-.483h1.095v-.386h-1.095v-.554h1.218v-.418h-1.714v2.259h1.689" fill="#b6111c" transform="matrix(17.53566 0 0-17.53566 185.34 667.21)" id="1"/><g fill="#b6111c"><path d="m0 0c.114 0 .199.025.256.076.057.051.086.133.086.247 0 .109-.029.189-.086.239-.057.049-.142.074-.256.074h-.544v-.636h.544m.177 1.022c.101 0 .192-.017.274-.049.081-.033.151-.078.209-.135.058-.057.102-.122.132-.197.031-.075.046-.156.046-.242 0-.133-.028-.248-.084-.345-.055-.097-.147-.171-.273-.222v-.006c.061-.017.112-.043.152-.077.04-.035.073-.076.098-.124.025-.047.043-.099.055-.156.012-.057.02-.114.024-.171.002-.036.004-.078.006-.127.002-.048.006-.098.011-.149.005-.05.014-.098.026-.143.011-.046.029-.084.052-.116h-.497c-.027.072-.044.157-.051.256-.006.099-.015.194-.028.285-.017.118-.053.205-.108.259-.055.055-.144.083-.269.083h-.496v-.883h-.497v2.259h1.218" transform="matrix(17.53566 0 0-17.53566 209.93 685.12)"/><path d="m231.72 706.81h8.707v-39.61h-8.707v39.61"/></g><use transform="translate(92.36)" xlink:href="#1"/><g fill="#b6111c"><path d="m0 0h1.992v-2.69h2.556v2.69h1.992v-7.187h-1.992v2.731h-2.556v-2.731h-1.992v7.187" transform="matrix(17.53566 0 0-17.53566 378.07 448.77)"/><path d="m0 0c1.191 0 1.982.657 1.982 1.817v.021c0 1.15-.791 1.817-1.982 1.817h-.811v-3.655h.811m-2.803 5.421h2.772c2.567 0 4.056-1.478 4.056-3.553v-.02c0-2.074-1.509-3.614-4.097-3.614h-2.731v7.187" transform="matrix(17.53566 0 0-17.53566 556.11 543.83)"/><path d="m0 0h-.291v.105h.709v-.105h-.293v-.853h-.125v.853" transform="matrix(17.53566 0 0-17.53566 624.12 450.38)"/><path d="m0 0c-.007.134-.016.296-.016.413h-.002c-.035-.11-.073-.231-.121-.363l-.169-.465h-.094l-.156.456c-.046.137-.083.259-.11.372h-.003c-.003-.119-.001-.278-.018-.423l-.026-.411h-.118l.067.958h.158l.163-.463c.04-.118.071-.223.097-.323h.003c.025.097.059.202.102.323l.17.463h.158l.06-.958h-.122l-.023.421" transform="matrix(17.53566 0 0-17.53566 647.46 457.96)"/></g></g></svg>

<?xml version="1.0" encoding="UTF-8" standalone="no"?>
<!-- Created with Inkscape (http://www.inkscape.org/) -->

<svg
   xmlns:dc="http://purl.org/dc/elements/1.1/"
   xmlns:cc="http://creativecommons.org/ns#"
   xmlns:rdf="http://www.w3.org/1999/02/22-rdf-syntax-ns#"
   xmlns:svg="http://www.w3.org/2000/svg"
   xmlns="http://www.w3.org/2000/svg"
   version="1.1"
   width="600"
   height="350.64297"
   id="svg192273">
  <defs
     id="defs192275" />
  <metadata
     id="metadata192278">
    <rdf:RDF>
      <cc:Work
         rdf:about="">
        <dc:format>image/svg+xml</dc:format>
        <dc:type
           rdf:resource="http://purl.org/dc/dcmitype/StillImage" />
        <dc:title></dc:title>
      </cc:Work>
    </rdf:RDF>
  </metadata>
  <g
     transform="translate(-50,-357.0407)"
     id="layer1">
    <g
       id="g199026">
      <g
         transform="matrix(17.535656,0,0,-17.535656,165.66519,549.49452)"
         id="g59669">
        <path
           d="m 0,0 0,4.291 1.122,0 1.542,-2.663 -0.041,2.663 1.033,0 L 3.656,0 2.541,0 1.04,2.505 1.026,0 0,0"
           id="path59671"
           style="fill:#b6111c;fill-opacity:1;fill-rule:nonzero;stroke:none" />
      </g>
      <g
         transform="matrix(17.535656,0,0,-17.535656,261.1819,549.49452)"
         id="g59673">
        <path
           d="m 0,0 0.005,3.31 -1.265,0 -0.006,0.981 3.662,0 L 2.402,3.31 1.089,3.31 1.084,0 0,0"
           id="path59675"
           style="fill:#b6111c;fill-opacity:1;fill-rule:nonzero;stroke:none" />
      </g>
      <g
         transform="matrix(17.535656,0,0,-17.535656,115.12743,549.49452)"
         id="g59677">
        <path
           d="m 0,0 0.005,3.31 -1.265,0 -0.006,0.981 3.662,0 L 2.402,3.31 1.089,3.31 1.084,0 0,0"
           id="path59679"
           style="fill:#b6111c;fill-opacity:1;fill-rule:nonzero;stroke:none" />
      </g>
      <g
         transform="matrix(17.535656,0,0,-17.535656,72.217676,505.09424)"
         id="g59681">
        <path
           d="m 0,0 c 0,-1.984 0.802,-3.773 2.102,-5.074 1.3,-1.3 3.09,-2.101 5.074,-2.102 1.983,0.001 3.773,0.802 5.074,2.102 1.299,1.301 2.101,3.09 2.102,5.074 C 14.351,1.984 13.549,3.774 12.25,5.074 10.949,6.374 9.159,7.176 7.176,7.176 5.192,7.176 3.402,6.374 2.102,5.074 0.802,3.774 0,1.984 0,0 z m -1.267,0 c 0,4.663 3.78,8.442 8.443,8.443 C 11.839,8.442 15.618,4.663 15.619,0 15.618,-4.663 11.839,-8.442 7.176,-8.443 2.513,-8.442 -1.267,-4.663 -1.267,0"
           id="path59683"
           style="fill:#b6111c;fill-opacity:1;fill-rule:nonzero;stroke:none" />
      </g>
      <g
         transform="matrix(17.535656,0,0,-17.535656,126.36778,697.03952)"
         id="g59685">
        <path
           d="m 0,0 c 0.027,-0.053 0.064,-0.096 0.109,-0.128 0.046,-0.033 0.099,-0.057 0.16,-0.073 0.061,-0.016 0.124,-0.024 0.19,-0.024 0.044,0 0.091,0.004 0.142,0.011 0.051,0.008 0.098,0.022 0.142,0.043 0.045,0.021 0.082,0.05 0.111,0.087 C 0.884,-0.047 0.898,0 0.898,0.057 0.898,0.118 0.879,0.168 0.84,0.206 0.801,0.244 0.75,0.275 0.687,0.301 0.623,0.326 0.552,0.348 0.471,0.367 0.391,0.386 0.31,0.407 0.228,0.43 0.143,0.451 0.061,0.477 -0.019,0.508 c -0.08,0.03 -0.152,0.07 -0.215,0.118 -0.063,0.049 -0.115,0.11 -0.154,0.182 -0.039,0.073 -0.058,0.161 -0.058,0.265 0,0.116 0.025,0.216 0.074,0.302 0.05,0.085 0.115,0.156 0.195,0.213 0.08,0.057 0.171,0.099 0.272,0.127 0.101,0.027 0.202,0.041 0.304,0.041 0.118,0 0.231,-0.013 0.34,-0.04 C 0.847,1.69 0.944,1.647 1.028,1.588 1.113,1.529 1.179,1.454 1.229,1.362 1.279,1.27 1.303,1.159 1.303,1.028 l -0.48,0 C 0.818,1.096 0.804,1.152 0.78,1.196 0.756,1.24 0.723,1.275 0.683,1.3 0.643,1.326 0.597,1.343 0.546,1.354 0.494,1.365 0.438,1.37 0.376,1.37 0.336,1.37 0.296,1.366 0.256,1.357 0.216,1.349 0.18,1.334 0.147,1.313 0.114,1.292 0.088,1.265 0.066,1.234 0.045,1.202 0.035,1.162 0.035,1.114 0.035,1.069 0.043,1.033 0.06,1.006 0.077,0.979 0.11,0.953 0.16,0.93 0.209,0.907 0.278,0.884 0.365,0.86 0.453,0.837 0.567,0.808 0.709,0.772 0.751,0.763 0.809,0.748 0.884,0.726 0.959,0.704 1.033,0.669 1.107,0.62 1.181,0.572 1.245,0.507 1.299,0.426 1.352,0.344 1.379,0.24 1.379,0.114 1.379,0.011 1.359,-0.085 1.319,-0.174 1.279,-0.263 1.22,-0.339 1.14,-0.403 1.061,-0.468 0.963,-0.518 0.846,-0.554 0.729,-0.59 0.594,-0.607 0.44,-0.607 c -0.125,0 -0.245,0.015 -0.363,0.045 -0.116,0.031 -0.22,0.079 -0.309,0.144 -0.09,0.066 -0.161,0.149 -0.214,0.25 -0.053,0.102 -0.078,0.222 -0.076,0.361 l 0.481,0 C -0.041,0.117 -0.027,0.053 0,0"
           id="path59687"
           style="fill:#b6111c;fill-opacity:1;fill-rule:nonzero;stroke:none" />
      </g>
      <g
         transform="matrix(17.535656,0,0,-17.535656,185.34019,667.21137)"
         id="g59689">
        <path
           d="m 0,0 0,-0.418 -1.193,0 0,-0.483 1.095,0 0,-0.386 -1.095,0 0,-0.554 1.218,0 0,-0.418 -1.714,0 0,2.259 L 0,0"
           id="path59691"
           style="fill:#b6111c;fill-opacity:1;fill-rule:nonzero;stroke:none" />
      </g>
      <g
         transform="matrix(17.535656,0,0,-17.535656,209.92518,685.11528)"
         id="g59693">
        <path
           d="M 0,0 C 0.114,0 0.199,0.025 0.256,0.076 0.313,0.127 0.342,0.209 0.342,0.323 0.342,0.432 0.313,0.512 0.256,0.562 0.199,0.611 0.114,0.636 0,0.636 l -0.544,0 L -0.544,0 0,0 z M 0.177,1.022 C 0.278,1.022 0.369,1.005 0.451,0.973 0.532,0.94 0.602,0.895 0.66,0.838 0.718,0.781 0.762,0.716 0.792,0.641 0.823,0.566 0.838,0.485 0.838,0.399 0.838,0.266 0.81,0.151 0.754,0.054 0.699,-0.043 0.607,-0.117 0.481,-0.168 l 0,-0.006 c 0.061,-0.017 0.112,-0.043 0.152,-0.077 0.04,-0.035 0.073,-0.076 0.098,-0.124 0.025,-0.047 0.043,-0.099 0.055,-0.156 0.012,-0.057 0.02,-0.114 0.024,-0.171 0.002,-0.036 0.004,-0.078 0.006,-0.127 0.002,-0.048 0.006,-0.098 0.011,-0.149 0.005,-0.05 0.014,-0.098 0.026,-0.143 0.011,-0.046 0.029,-0.084 0.052,-0.116 l -0.497,0 c -0.027,0.072 -0.044,0.157 -0.051,0.256 -0.006,0.099 -0.015,0.194 -0.028,0.285 -0.017,0.118 -0.053,0.205 -0.108,0.259 -0.055,0.055 -0.144,0.083 -0.269,0.083 l -0.496,0 0,-0.883 -0.497,0 0,2.259 1.218,0"
           id="path59695"
           style="fill:#b6111c;fill-opacity:1;fill-rule:nonzero;stroke:none" />
      </g>
      <path
         d="m 231.722,706.80688 8.70737,0 0,-39.60954 -8.70737,0 0,39.60954 z"
         id="path59697"
         style="fill:#b6111c;fill-opacity:1;fill-rule:nonzero;stroke:none" />
      <g
         transform="matrix(17.535656,0,0,-17.535656,277.70049,667.21137)"
         id="g59699">
        <path
           d="m 0,0 0,-0.418 -1.193,0 0,-0.483 1.095,0 0,-0.386 -1.095,0 0,-0.554 1.218,0 0,-0.418 -1.714,0 0,2.259 L 0,0"
           id="path59701"
           style="fill:#b6111c;fill-opacity:1;fill-rule:nonzero;stroke:none" />
      </g>
      <g
         transform="matrix(17.535656,0,0,-17.535656,378.07458,448.76971)"
         id="g59703">
        <path
           d="m 0,0 1.992,0 0,-2.69 2.556,0 0,2.69 1.992,0 0,-7.187 -1.992,0 0,2.731 -2.556,0 0,-2.731 L 0,-7.187 0,0"
           id="path59705"
           style="fill:#b6111c;fill-opacity:1;fill-rule:nonzero;stroke:none" />
      </g>
      <g
         transform="matrix(17.535656,0,0,-17.535656,556.1141,543.8305)"
         id="g59707">
        <path
           d="m 0,0 c 1.191,0 1.982,0.657 1.982,1.817 l 0,0.021 C 1.982,2.988 1.191,3.655 0,3.655 l -0.811,0 L -0.811,0 0,0 z m -2.803,5.421 2.772,0 c 2.567,0 4.056,-1.478 4.056,-3.553 l 0,-0.02 c 0,-2.074 -1.509,-3.614 -4.097,-3.614 l -2.731,0 0,7.187"
           id="path59709"
           style="fill:#b6111c;fill-opacity:1;fill-rule:nonzero;stroke:none" />
      </g>
      <g
         transform="matrix(17.535656,0,0,-17.535656,624.11737,450.38299)"
         id="g59711">
        <path
           d="m 0,0 -0.291,0 0,0.105 0.709,0 0,-0.105 -0.293,0 0,-0.853 L 0,-0.853 0,0"
           id="path59713"
           style="fill:#b6111c;fill-opacity:1;fill-rule:nonzero;stroke:none" />
      </g>
      <g
         transform="matrix(17.535656,0,0,-17.535656,647.45733,457.95839)"
         id="g59715">
        <path
           d="m 0,0 c -0.007,0.134 -0.016,0.296 -0.016,0.413 l -0.002,0 C -0.053,0.303 -0.091,0.182 -0.139,0.05 l -0.169,-0.465 -0.094,0 -0.156,0.456 C -0.604,0.178 -0.641,0.3 -0.668,0.413 l -0.003,0 C -0.674,0.294 -0.681,0.135 -0.689,-0.01 l -0.026,-0.411 -0.118,0 0.067,0.958 0.158,0 0.163,-0.463 c 0.04,-0.118 0.071,-0.223 0.097,-0.323 l 0.003,0 c 0.025,0.097 0.059,0.202 0.102,0.323 l 0.17,0.463 0.158,0 0.06,-0.958 -0.122,0 L 0,0"
           id="path59717"
           style="fill:#b6111c;fill-opacity:1;fill-rule:nonzero;stroke:none" />
      </g>
    </g>
  </g>
</svg>
